src/assets/page.svg

<svg height="426pt" viewBox="0 -21 426.66667 426" width="426pt" xmlns="http://www.w3.org/2000/svg"><path d="m373.332031.332031h-320c-29.441406.035157-53.2968748 23.894531-53.332031 53.335938v277.332031c.0351562 29.441406 23.890625 53.300781 53.332031 53.332031h320c29.441407-.03125 53.300781-23.890625 53.335938-53.332031v-277.332031c-.035157-29.441407-23.894531-53.300781-53.335938-53.335938zm-320 21.335938h320c17.667969.019531 31.980469 14.332031 32 32v10.664062h-384v-10.664062c.019531-17.667969 14.335938-31.980469 32-32zm320 341.332031h-320c-17.664062-.019531-31.980469-14.335938-32-32v-245.332031h384v245.332031c-.019531 17.664062-14.332031 31.980469-32 32zm0 0"/><path d="m74.667969 235h85.332031c2.828125 0 5.542969-1.121094 7.542969-3.121094 2.003906-2.003906 3.125-4.714844 3.125-7.546875v-64c0-2.828125-1.121094-5.542969-3.125-7.542969-2-2-4.714844-3.125-7.542969-3.121093h-85.332031c-2.832031-.003907-5.542969 1.121093-7.546875 3.121093-2 2-3.121094 4.714844-3.121094 7.542969v64c0 2.832031 1.121094 5.542969 3.121094 7.546875 2.003906 2 4.714844 3.121094 7.546875 3.121094zm10.664062-64h64v42.667969h-64zm0 0"/><path d="m352 149.667969h-128c-5.890625 0-10.667969 4.773437-10.667969 10.664062s4.777344 10.667969 10.667969 10.667969h128c5.890625 0 10.667969-4.777344 10.667969-10.667969s-4.777344-10.664062-10.667969-10.664062zm0 0"/><path d="m352 213.667969h-128c-5.890625 0-10.667969 4.773437-10.667969 10.664062s4.777344 10.667969 10.667969 10.667969h128c5.890625 0 10.667969-4.777344 10.667969-10.667969s-4.777344-10.664062-10.667969-10.664062zm0 0"/><path d="m352 277.667969h-277.332031c-5.890625 0-10.667969 4.773437-10.667969 10.664062s4.777344 10.667969 10.667969 10.667969h277.332031c5.890625 0 10.667969-4.777344 10.667969-10.667969s-4.777344-10.664062-10.667969-10.664062zm0 0"/></svg>

<svg xmlns="http://www.w3.org/2000/svg" width="568" height="568" viewBox="0 -21 426.667 426"><path d="M373.332.332h-320C23.891.367.035 24.227 0 53.668V331c.035 29.441 23.89 53.3 53.332 53.332h320c29.441-.031 53.3-23.89 53.336-53.332V53.668c-.035-29.441-23.895-53.3-53.336-53.336zm-320 21.336h320c17.668.02 31.98 14.332 32 32v10.664h-384V53.668c.02-17.668 14.336-31.98 32-32zm320 341.332h-320c-17.664-.02-31.98-14.336-32-32V85.668h384V331c-.02 17.664-14.332 31.98-32 32zm0 0"/><path d="M74.668 235H160a10.664 10.664 0 0 0 10.668-10.668v-64c0-2.828-1.121-5.543-3.125-7.543-2-2-4.715-3.125-7.543-3.121H74.668A10.66 10.66 0 0 0 64 160.332v64c0 2.832 1.121 5.543 3.121 7.547 2.004 2 4.715 3.121 7.547 3.121zm10.664-64h64v42.668h-64zM352 149.668H224c-5.89 0-10.668 4.773-10.668 10.664S218.109 171 224 171h128c5.89 0 10.668-4.777 10.668-10.668s-4.777-10.664-10.668-10.664zM352 213.668H224c-5.89 0-10.668 4.773-10.668 10.664S218.109 235 224 235h128c5.89 0 10.668-4.777 10.668-10.668s-4.777-10.664-10.668-10.664zM352 277.668H74.668c-5.89 0-10.668 4.773-10.668 10.664S68.777 299 74.668 299H352c5.89 0 10.668-4.777 10.668-10.668s-4.777-10.664-10.668-10.664zm0 0"/></svg>
